X:1
T:Two-Row Huayno
C:Original Andean-style hocket study
S:Public domain or original as noted in notes.md
M:2/4
L:1/8
Q:1/4=100
K:Gmix
H:G mixolydian starter arrangement for Siku/Zampona (G). Refs #1
G B d B | A c d c | B d e d | G4 |
A B d e | g e d B | A c B A | G4 |
G A B d | e d B A | G B d e | d4 |
B d e g | e d B A | G A B A | G4 |]
